X: 081
M: 2/4
L: 1/8
K: G
d |\
|: z |!segno!\
ccB"2f"A | ([dd2]>B)G2 | AGAB | G2D2 | ccBA | ([dd2]>B)G2 | AGAB | HG3 :|
|: g |\
f"2f"def | g3(b/>g/) | fdef | g2Gg | fdef | g3(b/>g/) | fdef | g2G2 !segno!:|

